Numix/16/status/indicator-keyboard-Lv-4.svg

<?xml version="1.0" encoding="UTF-8" standalone="no"?>
<svg
   xmlns:dc="http://purl.org/dc/elements/1.1/"
   xmlns:cc="http://creativecommons.org/ns#"
   xmlns:rdf="http://www.w3.org/1999/02/22-rdf-syntax-ns#"
   xmlns:svg="http://www.w3.org/2000/svg"
   xmlns="http://www.w3.org/2000/svg"
   xmlns:sodipodi="http://sodipodi.sourceforge.net/DTD/sodipodi-0.dtd"
   xmlns:inkscape="http://www.inkscape.org/namespaces/inkscape"
   viewBox="0 0 16 16"
   id="svg2"
   version="1.1"
   inkscape:version="0.91 r13725"
   sodipodi:docname="indicator-keyboard-Lv-4.svg">
  <metadata
     id="metadata14">
    <rdf:RDF>
      <cc:Work
         rdf:about="">
        <dc:format>image/svg+xml</dc:format>
        <dc:type
           rdf:resource="http://purl.org/dc/dcmitype/StillImage" />
      </cc:Work>
    </rdf:RDF>
  </metadata>
  <defs
     id="defs12" />
  <sodipodi:namedview
     pagecolor="#ffffff"
     bordercolor="#666666"
     borderopacity="1"
     objecttolerance="10"
     gridtolerance="10"
     guidetolerance="10"
     inkscape:pageopacity="0"
     inkscape:pageshadow="2"
     inkscape:window-width="640"
     inkscape:window-height="480"
     id="namedview10"
     showgrid="false"
     inkscape:zoom="14.75"
     inkscape:cx="8"
     inkscape:cy="8"
     inkscape:window-x="65"
     inkscape:window-y="24"
     inkscape:window-maximized="0"
     inkscape:current-layer="svg2" />
  <path
     style="fill:#ececec;fill-opacity:1"
     d="M 1.5996094 0 C 0.71320937 2.9605947e-16 0 0.71320937 0 1.5996094 L 0 14.400391 C 2.9605947e-16 15.286791 0.71320937 16 1.5996094 16 L 14.400391 16 C 15.286791 16 16 15.286791 16 14.400391 L 16 1.5996094 C 16 0.71320937 15.286791 0 14.400391 0 L 1.5996094 0 z M 2.6132812 4.859375 L 3.2246094 4.859375 L 3.2246094 10.564453 L 6.1582031 10.564453 L 6.1582031 11.095703 L 2.6132812 11.095703 L 2.6132812 4.859375 z M 6.2363281 6.4433594 L 6.8574219 6.4433594 C 6.9294219 6.7613594 7.0171406 7.10275 7.1191406 7.46875 C 7.2271406 7.82875 7.3409375 8.1888281 7.4609375 8.5488281 C 7.5869375 8.9028281 7.7156562 9.2479844 7.8476562 9.5839844 C 7.9796563 9.9139846 8.108375 10.208797 8.234375 10.466797 C 8.360375 10.208797 8.4890937 9.9139846 8.6210938 9.5839844 C 8.7530937 9.2479844 8.88 8.9028281 9 8.5488281 C 9.126 8.1888281 9.2397969 7.82875 9.3417969 7.46875 C 9.4497969 7.10275 9.5393281 6.7613594 9.6113281 6.4433594 L 10.197266 6.4433594 C 10.089266 6.8693594 9.9679377 7.289125 9.8359375 7.703125 C 9.7039375 8.117125 9.5640625 8.5219688 9.4140625 8.9179688 C 9.2700625 9.3139687 9.1170781 9.6945467 8.9550781 10.060547 C 8.7990781 10.426547 8.6460937 10.771703 8.4960938 11.095703 L 7.9375 11.095703 C 7.7815 10.771703 7.62475 10.426547 7.46875 10.060547 C 7.31275 9.6945467 7.1597656 9.3139687 7.0097656 8.9179688 C 6.8657656 8.5219688 6.7277031 8.117125 6.5957031 7.703125 C 6.4637031 7.289125 6.3443281 6.8693594 6.2363281 6.4433594 z M 12.486328 8.8417969 L 12.884766 8.8417969 L 12.884766 11.486328 L 13.386719 11.486328 L 13.386719 11.796875 L 12.884766 11.796875 L 12.884766 12.896484 L 12.509766 12.896484 L 12.509766 11.796875 L 10.673828 11.796875 L 10.673828 11.5625 C 10.744028 11.3753 10.840044 11.163687 10.964844 10.929688 C 11.093544 10.695688 11.238538 10.456637 11.398438 10.210938 C 11.558338 9.9652374 11.732722 9.7261874 11.919922 9.4921875 C 12.107122 9.2542875 12.295228 9.0367969 12.486328 8.8417969 z M 12.509766 9.2695312 C 12.373266 9.4099312 12.23415 9.5706063 12.09375 9.7539062 C 11.95335 9.9372063 11.820106 10.129225 11.691406 10.328125 C 11.566606 10.523125 11.449044 10.719069 11.339844 10.917969 C 11.230644 11.116869 11.138553 11.306928 11.064453 11.486328 L 12.509766 11.486328 L 12.509766 9.2695312 z "
     id="path4" />
</svg>

<svg xmlns="http://www.w3.org/2000/svg" viewBox="0 0 16 16">
 <path d="m 1.6 0 c -0.886 0 -1.6 0.713 -1.6 1.6 l 0 12.801 c 0 0.886 0.713 1.6 1.6 1.6 l 12.801 0 c 0.886 0 1.6 -0.713 1.6 -1.6 l 0 -12.801 c 0 -0.886 -0.713 -1.6 -1.6 -1.6 l -12.801 0 z m 1.014 4.859 l 0.611 0 l 0 5.705 l 2.934 0 l 0 0.531 l -3.545 0 l 0 -6.236 z m 3.623 1.584 l 0.621 0 c 0.072 0.318 0.16 0.659 0.262 1.025 c 0.108 0.36 0.222 0.72 0.342 1.08 c 0.126 0.354 0.255 0.699 0.387 1.035 c 0.132 0.33 0.261 0.625 0.387 0.883 c 0.126 -0.258 0.255 -0.553 0.387 -0.883 c 0.132 -0.336 0.259 -0.681 0.379 -1.035 c 0.126 -0.36 0.24 -0.72 0.342 -1.08 c 0.108 -0.366 0.198 -0.707 0.27 -1.025 l 0.586 0 c -0.108 0.426 -0.229 0.846 -0.361 1.26 c -0.132 0.414 -0.272 0.819 -0.422 1.215 c -0.144 0.396 -0.297 0.777 -0.459 1.143 c -0.156 0.366 -0.309 0.711 -0.459 1.035 l -0.559 0 c -0.156 -0.324 -0.313 -0.669 -0.469 -1.035 c -0.156 -0.366 -0.309 -0.747 -0.459 -1.143 c -0.144 -0.396 -0.282 -0.801 -0.414 -1.215 c -0.132 -0.414 -0.251 -0.834 -0.359 -1.26 z m 6.25 2.398 l 0.398 0 l 0 2.645 l 0.502 0 l 0 0.311 l -0.502 0 l 0 1.1 l -0.375 0 l 0 -1.1 l -1.836 0 l 0 -0.234 c 0.07 -0.187 0.166 -0.399 0.291 -0.633 c 0.129 -0.234 0.274 -0.473 0.434 -0.719 c 0.16 -0.246 0.334 -0.485 0.521 -0.719 c 0.187 -0.238 0.375 -0.455 0.566 -0.65 z m 0.023 0.428 c -0.137 0.14 -0.276 0.301 -0.416 0.484 c -0.14 0.183 -0.274 0.375 -0.402 0.574 c -0.125 0.195 -0.242 0.391 -0.352 0.59 c -0.109 0.199 -0.201 0.389 -0.275 0.568 l 1.445 0 l 0 -2.217 z" style="fill:#ececec;fill-opacity:1"/>
</svg>
